**kern	**silbe	**harmony	**phrase	**leadinstrument	**rhyme	**timestamp	**harte
*ICvox	*	*M4/4	*	*	*	*	*M4/4
*VRlead	*	*	*	*	*	*	*
*Hstimme	*	*	*	*	*	*	*
*A-:	*	*A-:	*	*	*	*	*A-:
*M4/4	*	*	*	*	*	*	*
*clefF4	*	*	*	*	*	*	*
r;	.	1r;	.	r	.	0	N.C.
=1	=1	=1	=1	=1	=1	=1	=1
*>Letter>A	*>Letter>A	*>Letter>A	*>Letter>A	*>Letter>A	*>Letter>A	*>Letter>A	*>Letter>A
*>Label>Intro	*>Label>Intro	*>Label>Intro	*>Label>Intro	*>Label>Intro	*>Label>Intro	*>Label>Intro	*>Label>Intro
1r	.	2.A-M	newline	guitar	.	0.522	A-:maj
.	.	4D-M	.	guitar	.	2.815	D-:maj/5
=2	=2	=2	=2	=2	=2	=2	=2
1r	.	1A-M	.	guitar	.	3.579	A-:maj
=3	=3	=3	=3	=3	=3	=3	=3
1r	.	2.A-M	.	guitar	.	6.636	A-:maj
.	.	4D-M	.	guitar	.	8.929	D-:maj/5
=4	=4	=4	=4	=4	=4	=4	=4
1r	.	1A-M	.	guitar	.	9.693	A-:maj
=5	=5	=5	=5	=5	=5	=5	=5
*>Letter>B	*>Letter>B	*>Letter>B	*>Letter>B	*>Letter>B	*>Letter>B	*>Letter>B	*>Letter>B
*>Label>Verse	*>Label>Verse	*>Label>Verse	*>Label>Verse	*>Label>Verse	*>Label>Verse	*>Label>Verse	*>Label>Verse
4r	.	1A-M	newline	voice	.	12.75	A-:maj
8r	.	.	.	.	.	.	.
16C	Stood	.	.	.	.	.	.
16BB-	there	.	.	.	.	.	.
8AA-	bol-	.	.	.	.	.	.
8AA-	-dly	.	.	.	.	.	.
4r	.	.	.	.	.	.	.
=6	=6	=6	=6	=6	=6	=6	=6
8r	.	1A-M	.	voice	.	15.728	A-:maj
16C	swea-	.	.	.	.	.	.
16C	-tin'	.	.	.	.	.	.
16C	in	.	.	.	.	.	.
16BB-	the	.	.	.	.	.	.
16BB-	sun.	.	.	.	A	.	.
16AA-	_	.	.	.	.	.	.
2r	.	.	.	.	.	.	.
=7	=7	=7	=7	=7	=7	=7	=7
8r	.	1D-M	.	voice	.	18.706	D-:maj/5
16r	.	.	.	.	.	.	.
16C	Felt	.	.	.	.	.	.
16C	like	.	.	.	.	.	.
16BB-	a	.	.	.	.	.	.
16AA-	mil-	.	.	.	.	.	.
16AA-	-lion.	.	.	.	A	.	.
2r	.	.	.	.	.	.	.
=8	=8	=8	=8	=8	=8	=8	=8
8C	Felt	1D-M	.	voice	.	21.683	D-:maj/5
8D-	like	.	.	.	.	.	.
16C	num-	.	.	.	.	.	.
16BB-	-ber	.	.	.	.	.	.
16BB-	one.	.	.	.	A	.	.
16AA-	_	.	.	.	.	.	.
2r	.	.	.	.	.	.	.
=9	=9	=9	=9	=9	=9	=9	=9
8r	.	1G-M	newline	voice	.	24.661	G-:maj/2
16r	.	.	.	.	.	.	.
16GG-	The	.	.	.	.	.	.
16C	height	.	.	.	.	.	.
8BB-	of	.	.	.	.	.	.
16BB-	sum-	.	.	.	.	.	.
16AA-	-mer.	.	.	.	.	.	.
4r	.	.	.	.	.	.	.
8r	.	.	.	.	.	.	.
16DD-	I'd	.	.	.	.	.	.
=10	=10	=10	=10	=10	=10	=10	=10
16C	ne-	1D-M	.	voice	.	27.66	D-:maj/5
16D-	-ver	.	.	.	.	.	.
8D-	felt	.	.	.	.	.	.
8BB-	that	.	.	.	.	.	.
16BB-	strong.	.	.	.	.	.	.
8AA-	_	.	.	.	.	.	.
8r	.	.	.	.	.	.	.
16r	.	.	.	.	.	.	.
8FF	Like	.	.	.	.	.	.
8AA-	a	.	.	.	.	.	.
=11	=11	=11	=11	=11	=11	=11	=11
8AA-	rock.	2.A-M	.	voice	.	30.658	A-:maj
2r	.	.	.	.	.	.	.
4r	.	.	.	.	.	.	.
.	.	4D-M	.	voice	.	32.907	D-:maj/5
8r	.	.	.	.	.	.	.
=12	=12	=12	=12	=12	=12	=12	=12
1r	.	1A-M	.	voice	.	33.656	A-:maj
=13	=13	=13	=13	=13	=13	=13	=13
*>Letter>B	*>Letter>B	*>Letter>B	*>Letter>B	*>Letter>B	*>Letter>B	*>Letter>B	*>Letter>B
*>Label>Verse	*>Label>Verse	*>Label>Verse	*>Label>Verse	*>Label>Verse	*>Label>Verse	*>Label>Verse	*>Label>Verse
4r	.	1A-M	newline	voice	.	36.654	A-:maj
8r	.	.	.	.	.	.	.
16C	I	.	.	.	.	.	.
16BB-	was	.	.	.	.	.	.
8BB-	eigh-	.	.	.	.	.	.
8AA-	-teen	.	.	.	.	.	.
4r	.	.	.	.	.	.	.
=14	=14	=14	=14	=14	=14	=14	=14
8r	.	1A-M	.	voice	.	39.623	A-:maj
16C	did-	.	.	.	.	.	.
16C	-'nt	.	.	.	.	.	.
16C	have	.	.	.	.	.	.
16BB-	a	.	.	.	.	.	.
16BB-	care.	.	.	.	B	.	.
16AA-	_	.	.	.	.	.	.
2r	.	.	.	.	.	.	.
=15	=15	=15	=15	=15	=15	=15	=15
8r	.	1D-M	.	voice	.	42.591	D-:maj
16r	.	.	.	.	.	.	.
16C	Work-	.	.	.	.	.	.
16C	-in'	.	.	.	.	.	.
16BB-	for	.	.	.	.	.	.
8AA-	pea-	.	.	.	.	.	.
8AA-	-nuts.	.	.	.	.	.	.
4r	.	.	.	.	.	.	.
8r	.	.	.	.	.	.	.
=16	=16	=16	=16	=16	=16	=16	=16
16C	Not	1D-M	.	voice	.	45.559	D-:maj
16D-	a	.	.	.	.	.	.
8C	dime	.	.	.	.	.	.
8BB-	to	.	.	.	.	.	.
16BB-	spare.	.	.	.	B	.	.
8.AA-	_	.	.	.	.	.	.
4r	.	.	.	.	.	.	.
8r	.	.	.	.	.	.	.
=17	=17	=17	=17	=17	=17	=17	=17
8r	.	1G-M	newline	voice	.	48.528	G-:sus2
16r	.	.	.	.	.	.	.
16GG-	but	.	.	.	.	.	.
16C	I	.	.	.	.	.	.
16BB-	was	.	.	.	.	.	.
8AA-	lean	.	.	.	.	.	.
16AA-	and,	.	.	.	.	.	.
4r	.	.	.	.	.	.	.
8r	.	.	.	.	.	.	.
16r	.	.	.	.	.	.	.
=18	=18	=18	=18	=18	=18	=18	=18
16C	so-	1D-M	.	voice	.	51.517	D-:maj
16D-	-lid	.	.	.	.	.	.
16C	eve-	.	.	.	.	.	.
16BB-	-ry-	.	.	.	.	.	.
16BB-	-where,	.	.	.	B	.	.
16AA-	_	.	.	.	.	.	.
4r	.	.	.	.	.	.	.
8r	.	.	.	.	.	.	.
8FF	Like	.	.	.	.	.	.
8AA-	a	.	.	.	.	.	.
=19	=19	=19	=19	=19	=19	=19	=19
8AA-	rock.	2.A-M	.	voice	.	54.507	A-:maj
2r	.	.	.	.	.	.	.
4r	.	.	.	.	.	.	.
.	.	4D-M	.	voice	.	56.749	D-:maj/5
8r	.	.	.	.	.	.	.
=20	=20	=20	=20	=20	=20	=20	=20
1r	.	1A-M	.	voice	.	57.496	A-:maj
=21	=21	=21	=21	=21	=21	=21	=21
*>Letter>B	*>Letter>B	*>Letter>B	*>Letter>B	*>Letter>B	*>Letter>B	*>Letter>B	*>Letter>B
*>Label>Verse	*>Label>Verse	*>Label>Verse	*>Label>Verse	*>Label>Verse	*>Label>Verse	*>Label>Verse	*>Label>Verse
8r	.	1A-M	newline	voice	.	60.485	A-:maj
16r	.	.	.	.	.	.	.
16AA-	My	.	.	.	.	.	.
8C	hands	.	.	.	.	.	.
16BB-	were	.	.	.	.	.	.
16BB-	stea-	.	.	.	.	.	.
16AA-	-dy.	.	.	.	.	.	.
4r	.	.	.	.	.	.	.
8r	.	.	.	.	.	.	.
16AA-	My	.	.	.	.	.	.
=22	=22	=22	=22	=22	=22	=22	=22
8.C	eyes	1A-M	.	voice	.	63.433	A-:maj
16D-	were	.	.	.	.	.	.
16C	clear	.	.	.	.	.	.
16BB-	and	.	.	.	.	.	.
16BB-	bright	.	.	.	C	.	.
16AA-	_	.	.	.	.	.	.
2r	.	.	.	.	.	.	.
=23	=23	=23	=23	=23	=23	=23	=23
8r	.	1D-M	.	voice	.	66.381	D-:maj
16r	.	.	.	.	.	.	.
16AA-	My	.	.	.	.	.	.
16C	walk	.	.	.	.	.	.
8BB-	had	.	.	.	.	.	.
8BB-	pur-	.	.	.	(D	.	.
8AA-	-pose.	.	.	.	d)	.	.
4r	.	.	.	.	.	.	.
16DD-	My	.	.	.	.	.	.
=24	=24	=24	=24	=24	=24	=24	=24
8C	steps	1D-M	.	voice	.	69.329	D-:maj
8D-	were	.	.	.	.	.	.
16C	quick	.	.	.	.	.	.
16BB-	and	.	.	.	.	.	.
16BB-	light;	.	.	.	C	.	.
16AA-	_	.	.	.	.	.	.
4r	.	.	.	.	.	.	.
4r	.	.	.	.	.	.	.
=25	=25	=25	=25	=25	=25	=25	=25
8.r	.	1G-M	newline	voice	.	72.277	G-:maj
16GG-	and	.	.	.	.	.	.
16C	I	.	.	.	.	.	.
[16BB-	held	.	.	.	.	.	.
16BB-]	_	.	.	.	.	.	.
8BB-	firm-	.	.	.	(D	.	.
16AA-	-ly	.	.	.	d)	.	.
4r	.	.	.	.	.	.	.
16r	.	.	.	.	.	.	.
16DD-	to	.	.	.	.	.	.
=26	=26	=26	=26	=26	=26	=26	=26
16C	what	1D-M	.	voice	.	75.224	D-:maj
8D-	I	.	.	.	.	.	.
16C	felt	.	.	.	.	.	.
8BB-	was	.	.	.	.	.	.
16BB-	right.	.	.	.	C	.	.
16AA-	_	.	.	.	.	.	.
4r	.	.	.	.	.	.	.
8FF	Like	.	.	.	.	.	.
8AA-	a	.	.	.	.	.	.
=27	=27	=27	=27	=27	=27	=27	=27
8AA-	rock.	2.A-M	.	voice	.	78.171	A-:maj
4r	.	.	.	.	.	.	.
8r	.	.	.	.	.	.	.
2r	.	.	.	.	.	.	.
.	.	4D-M	.	voice	.	80.381	D-:maj/5
=28	=28	=28	=28	=28	=28	=28	=28
2.r	.	1A-M	.	voice	.	81.118	A-:maj
8FF	Like	.	.	.	.	.	.
8AA-	a	.	.	.	.	.	.
=29	=29	=29	=29	=29	=29	=29	=29
*>Letter>B	*>Letter>B	*>Letter>B	*>Letter>B	*>Letter>B	*>Letter>B	*>Letter>B	*>Letter>B
*>Label>Chorus	*>Label>Chorus	*>Label>Chorus	*>Label>Chorus	*>Label>Chorus	*>Label>Chorus	*>Label>Chorus	*>Label>Chorus
8AA-	rock.	1A-M	newline	voice	.	84.065	A-:maj
4r	.	.	.	.	.	.	.
2r	.	.	.	.	.	.	.
16C	I	.	.	.	.	.	.
16E-	was	.	.	.	.	.	.
=30	=30	=30	=30	=30	=30	=30	=30
8.F	strong	1A-M	.	voice	.	87.003	A-:maj
16E-	as	.	.	.	.	.	.
16E-	I	.	.	.	.	.	.
16C	could	.	.	.	.	.	.
16E-	be,	.	.	.	E	.	.
32C	_	.	.	.	.	.	.
32BB-	_	.	.	.	.	.	.
16AA-	_	.	.	.	.	.	.
16r	.	.	.	.	.	.	.
8r	.	.	.	.	.	.	.
8FF	Like	.	.	.	.	.	.
8AA-	a	.	.	.	.	.	.
=31	=31	=31	=31	=31	=31	=31	=31
8AA-	rock.	1D-M	.	voice	.	89.942	D-:maj
4r	.	.	.	.	.	.	.
2r	.	.	.	.	.	.	.
16C	No-	.	.	.	.	.	.
16E-	-thin'	.	.	.	.	.	.
=32	=32	=32	=32	=32	=32	=32	=32
8F	e-	1D-M	.	voice	.	92.881	D-:maj
16E-	-ver	.	.	.	.	.	.
8E-	got	.	.	.	.	.	.
16C	to	.	.	.	.	.	.
32C	me,	.	.	.	E	.	.
32BB-	_	.	.	.	.	.	.
16AA-	_	.	.	.	.	.	.
4r	.	.	.	.	.	.	.
8FF	Like	.	.	.	.	.	.
8AA-	a	.	.	.	.	.	.
=33	=33	=33	=33	=33	=33	=33	=33
8AA-	rock.	1G-M	newline	voice	.	95.819	G-:maj
4r	.	.	.	.	.	.	.
2r	.	.	.	.	.	.	.
16DD-	I	.	.	.	.	.	.
16DD-	was	.	.	.	.	.	.
=34	=34	=34	=34	=34	=34	=34	=34
24BB-	some-	1D-M	.	voice	.	98.749	D-:maj
24C-	-thin'	.	.	.	.	.	.
24C-	to	.	.	.	.	.	.
16BB-	see,	.	.	.	E	.	.
8AA-	_	.	.	.	.	.	.
16r	.	.	.	.	.	.	.
4r	.	.	.	.	.	.	.
8r	.	.	.	.	.	.	.
8FF	Like	.	.	.	.	.	.
8AA-	a	.	.	.	.	.	.
=35	=35	=35	=35	=35	=35	=35	=35
8AA-	rock.	2.A-M	.	voice	.	101.678	A-:maj
4.r	.	.	.	.	.	.	.
2r	.	.	.	.	.	.	.
.	.	4D-M	.	voice	.	103.875	D-:maj/5
=36	=36	=36	=36	=36	=36	=36	=36
4r	.	1A-M	.	voice	.	104.607	A-:maj
8r	.	.	.	.	.	.	.
8r	.	.	.	.	.	.	.
4r	.	.	.	.	.	.	.
8r	.	.	.	.	.	.	.
16E-	And	.	.	.	.	.	.
16F	I	.	.	.	.	.	.
=37	=37	=37	=37	=37	=37	=37	=37
*>Letter>C	*>Letter>C	*>Letter>C	*>Letter>C	*>Letter>C	*>Letter>C	*>Letter>C	*>Letter>C
*>Label>Bridge	*>Label>Bridge	*>Label>Bridge	*>Label>Bridge	*>Label>Bridge	*>Label>Bridge	*>Label>Bridge	*>Label>Bridge
4c-	stood	1Fm	newline	voice	.	107.537	F:min
16B-	arr-	.	.	.	.	.	.
[16A-	-ow	.	.	.	.	.	.
8A-]	_	.	.	.	.	.	.
8A-	straight,	.	.	.	F	.	.
4r	.	.	.	.	.	.	.
16A-	un-	.	.	.	.	.	.
[16B-	-em-	.	.	.	.	.	.
=38	=38	=38	=38	=38	=38	=38	=38
16B-]	_	1Fm	.	voice	.	110.466	F:min
16B-	-cum-	.	.	.	.	.	.
8A-	-bered	.	.	.	.	.	.
16A-	by	.	.	.	.	.	.
[16A-	the	.	.	.	.	.	.
16A-]	_	.	.	.	.	.	.
8.A-	weight	.	.	.	F	.	.
16F	of	.	.	.	.	.	.
8F	all	.	.	.	.	.	.
8.F	these	.	.	.	.	.	.
=39	=39	=39	=39	=39	=39	=39	=39
8F	hustl-	1A-M	.	voice	.	113.395	A-:maj
8E-	-ers	.	.	.	.	.	.
16E-	and	.	.	.	.	.	.
8E-	their	.	.	.	.	.	.
[16E-	schemes	.	.	.	G	.	.
4E-]	_	.	.	.	.	.	.
4r	.	.	.	.	.	.	.
=40	=40	=40	=40	=40	=40	=40	=40
2r	.	1A-M	.	voice	.	116.324	A-:maj
8.r	.	.	.	.	.	.	.
8A-	I	.	.	.	.	.	.
8A-	stood	.	.	.	.	.	.
[16A-	proud.	.	.	.	.	.	.
=41	=41	=41	=41	=41	=41	=41	=41
4A-]	_	1D-M	newline	voice	.	119.254	D-:maj
8A-	I	.	.	.	.	.	.
8A-	stood	.	.	.	.	.	.
32F	tall,	.	.	.	H	.	.
32E-	_	.	.	.	.	.	.
16D-	_	.	.	.	.	.	.
4r	.	.	.	.	.	.	.
8r	.	.	.	.	.	.	.
=42	=42	=42	=42	=42	=42	=42	=42
16A-	High	1D-M	.	voice	.	122.141	D-:maj
16B-	_	.	.	.	.	.	.
[8A-	_	.	.	.	.	.	.
32A-]	_	.	.	.	.	.	.
32A-	a-	.	.	.	.	.	.
16A-	-bove	.	.	.	.	.	.
16A-	it	.	.	.	.	.	.
32F	all.	.	.	.	H	.	.
32E-	_	.	.	.	.	.	.
16D-	_	.	.	.	.	.	.
4r	.	.	.	.	.	.	.
8r	.	.	.	.	.	.	.
16D-	I	.	.	.	.	.	.
=43	=43	=43	=43	=43	=43	=43	=43
4c-	still	1B-m	.	voice	.	125.029	B-:min
8B-	be-	.	.	.	.	.	.
[8B-	-lieved	.	.	.	.	.	.
12B-]	_	.	.	.	.	.	.
12B-	in	.	.	.	.	.	.
12B-	my	.	.	.	.	.	.
32G-	dreams.	.	.	.	G	.	.
32F	_	.	.	.	.	.	.
8.E-	_	.	.	.	.	.	.
=44	=44	=44	=44	=44	=44	=44	=44
1r	.	1E-M	.	voice	.	127.917	E-:maj
=45	=45	=45	=45	=45	=45	=45	=45
*>Letter>B	*>Letter>B	*>Letter>B	*>Letter>B	*>Letter>B	*>Letter>B	*>Letter>B	*>Letter>B
*>Label>Solo	*>Label>Solo	*>Label>Solo	*>Label>Solo	*>Label>Solo	*>Label>Solo	*>Label>Solo	*>Label>Solo
1r	.	1A-M	newline	guitar	.	130.805	A-:maj
=46	=46	=46	=46	=46	=46	=46	=46
1r	.	1A-M	.	guitar	.	133.721	A-:maj
=47	=47	=47	=47	=47	=47	=47	=47
1r	.	1D-M	.	guitar	.	136.638	D-:maj
=48	=48	=48	=48	=48	=48	=48	=48
1r	.	1D-M	.	guitar	.	139.555	D-:maj
=49	=49	=49	=49	=49	=49	=49	=49
1r	.	1G-M	newline	guitar	.	142.471	G-:maj
=50	=50	=50	=50	=50	=50	=50	=50
1r	.	1D-M	.	guitar	.	145.392	D-:maj
=51	=51	=51	=51	=51	=51	=51	=51
1r	.	2.A-M	.	guitar	.	148.313	A-:maj
.	.	4D-M	.	guitar	.	150.504	D-:maj/5
=52	=52	=52	=52	=52	=52	=52	=52
1r	.	1A-M	.	guitar	.	151.234	A-:maj
=53	=53	=53	=53	=53	=53	=53	=53
1r	.	1A-M	newline	guitar	.	154.154	A-:maj
=54	=54	=54	=54	=54	=54	=54	=54
1r	.	1A-M	.	guitar	.	157.022	A-:maj
=55	=55	=55	=55	=55	=55	=55	=55
1r	.	1D-M	.	guitar	.	159.89	D-:maj
=56	=56	=56	=56	=56	=56	=56	=56
1r	.	1D-M	.	guitar	.	162.757	D-:maj
=57	=57	=57	=57	=57	=57	=57	=57
1r	.	1G-M	newline	guitar	.	165.625	G-:maj
=58	=58	=58	=58	=58	=58	=58	=58
1r	.	1D-M	.	guitar	.	168.489	D-:maj
=59	=59	=59	=59	=59	=59	=59	=59
1r	.	2.A-M	.	guitar	.	171.352	A-:maj
.	.	4D-M	.	guitar	.	173.5	D-:maj/5
=60	=60	=60	=60	=60	=60	=60	=60
1r	.	1A-M	.	guitar	.	174.216	A-:maj
=61	=61	=61	=61	=61	=61	=61	=61
*>Letter>A	*>Letter>A	*>Letter>A	*>Letter>A	*>Letter>A	*>Letter>A	*>Letter>A	*>Letter>A
*>Label>Interlude	*>Label>Interlude	*>Label>Interlude	*>Label>Interlude	*>Label>Interlude	*>Label>Interlude	*>Label>Interlude	*>Label>Interlude
1r	.	2.A-M	newline	guitar	.	177.08	A-:maj
.	.	4D-M	.	guitar	.	179.307	D-:maj/5
=62	=62	=62	=62	=62	=62	=62	=62
1r	.	1A-M	.	guitar	.	180.05	A-:maj
=63	=63	=63	=63	=63	=63	=63	=63
1r	.	2.A-M	.	guitar	.	183.02	A-:maj
.	.	4D-M	.	guitar	.	185.248	D-:maj/5
=64	=64	=64	=64	=64	=64	=64	=64
1r	.	1A-M	.	guitar	.	185.99	A-:maj
=65	=65	=65	=65	=65	=65	=65	=65
*>Letter>B	*>Letter>B	*>Letter>B	*>Letter>B	*>Letter>B	*>Letter>B	*>Letter>B	*>Letter>B
*>Label>Verse	*>Label>Verse	*>Label>Verse	*>Label>Verse	*>Label>Verse	*>Label>Verse	*>Label>Verse	*>Label>Verse
4r	.	1A-M	newline	voice	.	188.96	A-:maj
8r	.	.	.	.	.	.	.
16BB-	Twen-	.	.	.	.	.	.
16AA-	-ty	.	.	.	.	.	.
8AA-	years	.	.	.	.	.	.
8AA-	now.	.	.	.	.	.	.
4r	.	.	.	.	.	.	.
=66	=66	=66	=66	=66	=66	=66	=66
8r	.	1A-M	.	voice	.	191.961	A-:maj
16r	.	.	.	.	.	.	.
8BB-	Where'd	.	.	.	.	.	.
[16C	they	.	.	.	.	.	.
16C]	_	.	.	.	.	.	.
8AA-	go?.	.	.	.	I	.	.
8.r	.	.	.	.	.	.	.
4r	.	.	.	.	.	.	.
=67	=67	=67	=67	=67	=67	=67	=67
16r	.	1D-M	.	voice	.	194.961	D-:maj
4r	.	.	.	.	.	.	.
16r	.	.	.	.	.	.	.
32BB-	Twen-	.	.	.	.	.	.
32BB-	-ty	.	.	.	.	.	.
32BB-	years.	.	.	.	.	.	.
16.AA-	_	.	.	.	.	.	.
8.r	.	.	.	.	.	.	.
4r	.	.	.	.	.	.	.
=68	=68	=68	=68	=68	=68	=68	=68
16r	.	1D-M	.	voice	.	197.962	D-:maj
8BB-	I	.	.	.	.	.	.
8BB-	don't	.	.	.	.	.	.
16BB-	know.	.	.	.	I	.	.
16AA-	_	.	.	.	.	.	.
2r	.	.	.	.	.	.	.
16r	.	.	.	.	.	.	.
=69	=69	=69	=69	=69	=69	=69	=69
8.r	.	1G-M	newline	voice	.	200.963	G-:maj
16GG-	I	.	.	.	.	.	.
16C	sit;	.	.	.	.	.	.
16BB-	and	.	.	.	.	.	.
16BB-	I	.	.	.	.	.	.
16BB-	won-	.	.	.	.	.	.
16AA-	-der	.	.	.	.	.	.
8AA-	some-	.	.	.	.	.	.
[16AA-	-times	.	.	.	.	.	.
4AA-]	_	.	.	.	.	.	.
=70	=70	=70	=70	=70	=70	=70	=70
4r	.	1D-M	.	voice	.	203.904	D-:maj
8r	.	.	.	.	.	.	.
4r	.	.	.	.	.	.	.
8r	.	.	.	.	.	.	.
16FF	where	.	.	.	.	.	.
8.AA-	they've	.	.	.	.	.	.
=71	=71	=71	=71	=71	=71	=71	=71
4AA-	gone;	2.A-M	.	voice	.	206.845	A-:maj
4r	.	.	.	.	.	.	.
2r	.	.	.	.	.	.	.
.	.	4D-M	.	voice	.	209.051	D-:maj/5
=72	=72	=72	=72	=72	=72	=72	=72
1r	.	1A-M	.	voice	.	209.786	A-:maj
=73	=73	=73	=73	=73	=73	=73	=73
*>Letter>B	*>Letter>B	*>Letter>B	*>Letter>B	*>Letter>B	*>Letter>B	*>Letter>B	*>Letter>B
*>Label>Verse	*>Label>Verse	*>Label>Verse	*>Label>Verse	*>Label>Verse	*>Label>Verse	*>Label>Verse	*>Label>Verse
2r	.	1A-M	newline	voice	.	212.727	A-:maj
16r	.	.	.	.	.	.	.
16AA-	And	.	.	.	.	.	.
8E-	some-	.	.	.	.	.	.
8E-	-times	.	.	.	.	.	.
8F	late	.	.	.	.	.	.
=74	=74	=74	=74	=74	=74	=74	=74
16A-	at	1A-M	.	voice	.	215.651	A-:maj
8.A-	night,	.	.	.	J	.	.
4r	.	.	.	.	.	.	.
2r	.	.	.	.	.	.	.
=75	=75	=75	=75	=75	=75	=75	=75
4r	.	1D-M	.	voice	.	218.575	D-:maj
8r	.	.	.	.	.	.	.
4A-	Oh	.	.	.	.	.	.
16A-	when	.	.	.	.	.	.
16A-	I'm	.	.	.	.	.	.
16A-	bathed	.	.	.	.	.	.
16F	_	.	.	.	.	.	.
16BB-	in	.	.	.	.	.	.
16BB-	the	.	.	.	.	.	.
=76	=76	=76	=76	=76	=76	=76	=76
16C	fire-	1D-M	.	voice	.	221.499	D-:maj
16AA-	_	.	.	.	.	.	.
16BB-	-light:	.	.	.	J	.	.
16AA-	_	.	.	.	.	.	.
8r	.	.	.	.	.	.	.
2r	.	.	.	.	.	.	.
8r	.	.	.	.	.	.	.
=77	=77	=77	=77	=77	=77	=77	=77
8r	.	1G-M	newline	voice	.	224.423	G-:maj
16AA-	The	.	.	.	.	.	.
8G-	moon	.	.	.	.	.	.
[16G-	comes	.	.	.	.	.	.
8G-]	_	.	.	.	.	.	.
8G-	call-	.	.	.	.	.	.
16G-	-in'	.	.	.	.	.	.
16G-	a	.	.	.	.	.	.
16G-	ghos-	.	.	.	.	.	.
16F	_	.	.	.	.	.	.
16F	-tly	.	.	.	.	.	.
16F	white;	.	.	.	J	.	.
=78	=78	=78	=78	=78	=78	=78	=78
2r	.	1D-M	.	voice	.	227.293	D-:maj
4r	.	.	.	.	.	.	.
16r	.	.	.	.	.	.	.
16FF	and	.	.	.	.	.	.
16FF	I	.	.	.	.	.	.
16AA-	re-	.	.	.	.	.	.
=79	=79	=79	=79	=79	=79	=79	=79
4AA-	-call.	2.A-M	.	voice	.	230.164	A-:maj
4r	.	.	.	.	.	.	.
4r	.	.	.	.	.	.	.
16r	.	4D-M	.	voice	.	232.317	D-:maj/5
8F	I	.	.	.	.	.	.
16A-	re-	.	.	.	.	.	.
=80	=80	=80	=80	=80	=80	=80	=80
4A-	-call.	1A-M	.	voice	H	233.035	A-:maj
4r	.	.	.	.	.	.	.
8r	.	.	.	.	.	.	.
8r	.	.	.	.	.	.	.
8F	Like	.	.	.	.	.	.
8A-	a	.	.	.	.	.	.
=81	=81	=81	=81	=81	=81	=81	=81
*>Letter>B	*>Letter>B	*>Letter>B	*>Letter>B	*>Letter>B	*>Letter>B	*>Letter>B	*>Letter>B
*>Label>Chorus	*>Label>Chorus	*>Label>Chorus	*>Label>Chorus	*>Label>Chorus	*>Label>Chorus	*>Label>Chorus	*>Label>Chorus
8A-	rock.	1A-M	newline	voice	.	235.905	A-:maj
4.r	.	.	.	.	.	.	.
2r	.	.	.	.	.	.	.
=82	=82	=82	=82	=82	=82	=82	=82
8c	Stand-	1A-M	.	voice	.	238.771	A-:maj
16B-	_	.	.	.	.	.	.
16B-	-in'	.	.	.	.	.	.
16B-	arr-	.	.	.	.	.	.
[16A-	-ow	.	.	.	.	.	.
16A-]	_	.	.	.	.	.	.
8.A-	straight,	.	.	.	F	.	.
8r	.	.	.	.	.	.	.
8F	Like	.	.	.	.	.	.
8A-	a	.	.	.	.	.	.
=83	=83	=83	=83	=83	=83	=83	=83
8A-	rock.	1D-M	.	voice	.	241.637	D-:maj
8r	.	.	.	.	.	.	.
4r	.	.	.	.	.	.	.
2r	.	.	.	.	.	.	.
=84	=84	=84	=84	=84	=84	=84	=84
8c	Char-	1D-M	.	voice	.	244.503	D-:maj
16B-	_	.	.	.	.	.	.
16B-	-gin'	.	.	.	.	.	.
16B-	from	.	.	.	.	.	.
16A-	the	.	.	.	.	.	.
8A-	gate,	.	.	.	F	.	.
4r	.	.	.	.	.	.	.
8F	Like	.	.	.	.	.	.
8A-	a	.	.	.	.	.	.
=85	=85	=85	=85	=85	=85	=85	=85
8A-	rock.	1G-M	newline	voice	.	247.369	G-:maj
8r	.	.	.	.	.	.	.
4r	.	.	.	.	.	.	.
2r	.	.	.	.	.	.	.
=86	=86	=86	=86	=86	=86	=86	=86
16c-	Car-	1D-M	.	voice	.	250.251	D-:maj
16B-	-ry-	.	.	.	.	.	.
16B-	-in'	.	.	.	.	.	.
16A-	the	.	.	.	.	.	.
8A-	weight,	.	.	.	F	.	.
4r	.	.	.	.	.	.	.
8r	.	.	.	.	.	.	.
8F	Like	.	.	.	.	.	.
8A-	a	.	.	.	.	.	.
=87	=87	=87	=87	=87	=87	=87	=87
8A-	rock.	2.A-M	.	voice	.	253.133	A-:maj
8r	.	.	.	.	.	.	.
4r	.	.	.	.	.	.	.
2r	.	.	.	.	.	.	.
.	.	4D-M	.	voice	.	255.295	D-:maj/5
=88	=88	=88	=88	=88	=88	=88	=88
2r	.	1A-M	.	voice	.	256.015	A-:maj
8r	.	.	.	.	.	.	.
8A-	Oh	.	.	.	.	.	.
8F	like	.	.	.	.	.	.
8A-	a	.	.	.	.	.	.
=89	=89	=89	=89	=89	=89	=89	=89
*>Letter>B	*>Letter>B	*>Letter>B	*>Letter>B	*>Letter>B	*>Letter>B	*>Letter>B	*>Letter>B
*>Label>Chorus	*>Label>Chorus	*>Label>Chorus	*>Label>Chorus	*>Label>Chorus	*>Label>Chorus	*>Label>Chorus	*>Label>Chorus
8A-	rock.	1A-M	newline	voice	.	258.897	A-:maj
8r	.	.	.	.	.	.	.
4r	.	.	.	.	.	.	.
4..r	.	.	.	.	.	.	.
16E-	The	.	.	.	.	.	.
=90	=90	=90	=90	=90	=90	=90	=90
16c	sun	1A-M	.	voice	.	261.74	A-:maj
8B-	u-	.	.	.	.	.	.
8B-	-pon	.	.	.	.	.	.
[16A-	my	.	.	.	.	.	.
8A-]	_	.	.	.	.	.	.
8A-	skin,	.	.	.	K	.	.
8r	.	.	.	.	.	.	.
8F	Like	.	.	.	.	.	.
8A-	a	.	.	.	.	.	.
=91	=91	=91	=91	=91	=91	=91	=91
8A-	rock.	1D-M	.	voice	.	264.582	D-:maj
8r	.	.	.	.	.	.	.
4r	.	.	.	.	.	.	.
4..r	.	.	.	.	.	.	.
[16c-	Hard	.	.	.	.	.	.
=92	=92	=92	=92	=92	=92	=92	=92
8c-]	_	1D-M	.	voice	.	267.425	D-:maj
16B-	_	.	.	.	.	.	.
16B-	a-	.	.	.	.	.	.
8B-	-gainst	.	.	.	.	.	.
16A-	the	.	.	.	.	.	.
8.A-	wind,	.	.	.	K	.	.
8r	.	.	.	.	.	.	.
8F	Like	.	.	.	.	.	.
8A-	a	.	.	.	.	.	.
=93	=93	=93	=93	=93	=93	=93	=93
8A-	rock.	1G-M	newline	voice	.	270.267	G-:maj
8r	.	.	.	.	.	.	.
4r	.	.	.	.	.	.	.
4r	.	.	.	.	.	.	.
16r	.	.	.	.	.	.	.
8.c-	I	.	.	.	.	.	.
=94	=94	=94	=94	=94	=94	=94	=94
16c-	see	1D-M	.	voice	.	273.079	D-:maj
8B-	my-	.	.	.	.	.	.
16B-	-self	.	.	.	.	.	.
16A-	a-	.	.	.	.	.	.
[16A-	-gain,	.	.	.	K	.	.
8A-]	_	.	.	.	.	.	.
4r	.	.	.	.	.	.	.
8F	like	.	.	.	.	.	.
8A-	a	.	.	.	.	.	.
=95	=95	=95	=95	=95	=95	=95	=95
8A-	rock.	2.A-M	.	voice	.	275.89	A-:maj
4r	.	.	.	.	.	.	.
8r	.	.	.	.	.	.	.
16r	.	.	.	.	.	.	.
16c-	Oh	.	.	.	.	.	.
4B-	_	.	.	.	.	.	.
.	.	4D-M	.	voice	.	277.999	D-:maj/5
16B-	like	.	.	.	.	.	.
16A-	a	.	.	.	.	.	.
=96	=96	=96	=96	=96	=96	=96	=96
4A-	rock.	1A-M	.	voice	.	278.702	A-:maj
4r	.	.	.	.	.	.	.
2r	.	.	.	.	.	.	.
=97	=97	=97	=97	=97	=97	=97	=97
*>Letter>B	*>Letter>B	*>Letter>B	*>Letter>B	*>Letter>B	*>Letter>B	*>Letter>B	*>Letter>B
*>Label>Outro	*>Label>Outro	*>Label>Outro	*>Label>Outro	*>Label>Outro	*>Label>Outro	*>Label>Outro	*>Label>Outro
1r	.	1A-M	newline	guitar	.	281.513	A-:maj
=98	=98	=98	=98	=98	=98	=98	=98
1r	.	1A-M	.	guitar	.	284.33	A-:maj
=99	=99	=99	=99	=99	=99	=99	=99
1r	.	1D-M	.	guitar	.	287.146	D-:maj
=100	=100	=100	=100	=100	=100	=100	=100
1r	.	1D-M	.	guitar	.	289.963	D-:maj
=101	=101	=101	=101	=101	=101	=101	=101
1r	.	1G-M	newline	guitar	.	292.779	G-:maj
=102	=102	=102	=102	=102	=102	=102	=102
1r	.	1D-M	.	guitar	.	295.582	D-:maj
=103	=103	=103	=103	=103	=103	=103	=103
1r	.	2.A-M	.	guitar	.	298.384	A-:maj
.	.	4D-M	.	guitar	.	300.486	D-:maj/5
=104	=104	=104	=104	=104	=104	=104	=104
4r	.	1A-M	.	guitar	.	301.187	A-:maj
8r	.	.	.	.	.	.	.
4c-	Oh.	.	.	.	.	.	.
8B-	_	.	.	.	.	.	.
4r	.	.	.	.	.	.	.
=105	=105	=105	=105	=105	=105	=105	=105
1r	.	1A-M	newline	guitar	.	303.99	A-:maj
=106	=106	=106	=106	=106	=106	=106	=106
1r	.	1A-M	.	guitar	.	306.786	A-:maj
=107	=107	=107	=107	=107	=107	=107	=107
1r	.	1D-M	.	guitar	.	309.583	D-:maj
=108	=108	=108	=108	=108	=108	=108	=108
1r	.	1D-M	.	guitar	.	312.379	D-:maj
=109	=109	=109	=109	=109	=109	=109	=109
1r	.	1G-M	newline	guitar	.	315.176	G-:maj
=110	=110	=110	=110	=110	=110	=110	=110
1r	.	1D-M	.	guitar	.	317.938	D-:maj
=111	=111	=111	=111	=111	=111	=111	=111
1r	.	2.A-M	.	guitar	.	320.7	A-:maj
.	.	4D-M	.	guitar	.	322.772	D-:maj/5
=112	=112	=112	=112	=112	=112	=112	=112
1r	.	1A-M	.	guitar	.	323.463	A-:maj
=113	=113	=113	=113	=113	=113	=113	=113
1r	.	1A-M	newline	guitar	.	326.225	A-:maj
=114	=114	=114	=114	=114	=114	=114	=114
1r	.	1A-M	.	guitar	.	328.996	A-:maj
=115	=115	=115	=115	=115	=115	=115	=115
1r	.	1D-M	.	guitar	.	331.767	D-:maj
=116	=116	=116	=116	=116	=116	=116	=116
1r	.	1D-M	.	guitar	.	334.539	D-:maj
=117	=117	=117	=117	=117	=117	=117	=117
1r	.	1G-M	newline	guitar	.	337.31	G-:maj
=118	=118	=118	=118	=118	=118	=118	=118
1r	.	1D-M	.	guitar	.	340.059	D-:maj
=119	=119	=119	=119	=119	=119	=119	=119
1r	.	1A-M	.	piano	.	342.808	A-:maj
=120	=120	=120	=120	=120	=120	=120	=120
1r	.	1A-M	.	piano	.	344.87	A-:maj
r;	.	1r;	.	r	.	353.804	N.C.
r;	.	1r;	.	r	.	355.004	N.C.
*-	*-	*-	*-	*-	*-	*-	*-
!!!BillboardChartDate: 1986/08/16
!!!BillboardPeak: 12
!!!BillboardWeeksOnChart: 13
!!!COC: Bob Seger
!!!ENC: Nathaniel Condit-Schultz
!!!EST: Awating manual error checking and editing.
!!!OTL: Like A Rock
!!!RDF**chordsym: original McGill chord annotation + (implied pitch class set, with bass pitch in first position)
!!!RDF**harmony: **recip + pitch class of root + harmonic quality
!!!RDF**leadinstrument: original McGill primary instrumentation annotation
!!!RDF**phrase: newline = linebreak in original McGill transcription
!!!RDF**timestamp: McGill audio timestamp in seconds
!!!RDT: 2017/01/12/
!!!SampleActualRank: 91
!!!SampleID#: 0941
!!!SampleTargetRank: 93
